packages/icons/src/clipboard-clock-fill.svg

<svg width="24" height="24" viewBox="0 0 24 24" fill="none" xmlns="http://www.w3.org/2000/svg">
<path fill-rule="evenodd" clip-rule="evenodd" d="M15 13.667C14.5623 13.667 14.1289 13.7532 13.7245 13.9207C13.3201 14.0882 12.9527 14.3337 12.6432 14.6432C12.3337 14.9527 12.0882 15.3201 11.9207 15.7245C11.7532 16.1289 11.667 16.5623 11.667 17C11.667 17.4377 11.7532 17.8711 11.9207 18.2755C12.0882 18.6799 12.3337 19.0473 12.6432 19.3568C12.9527 19.6663 13.3201 19.9118 13.7245 20.0793C14.1289 20.2468 14.5623 20.333 15 20.333C15.884 20.333 16.7317 19.9818 17.3568 19.3568C17.9818 18.7317 18.333 17.884 18.333 17C18.333 16.116 17.9818 15.2683 17.3568 14.6432C16.7317 14.0182 15.884 13.667 15 13.667ZM15.347 16.652V14.917H14.306V17.694H17.083V16.652H15.347Z" fill="black"/>
<path fill-rule="evenodd" clip-rule="evenodd" d="M14.82 3C14.4 1.84 13.3 1 12 1C10.7 1 9.6 1.84 9.18 3H6C4.9 3 4 3.9 4 5V20C4 21.1 4.9 22 6 22H9H15C13.6739 22 12.4021 21.4732 11.4645 20.5355C11.2962 20.3672 11.1411 20.1882 11 20C10.3547 19.1396 10 18.0881 10 17C10 15.6739 10.5268 14.4021 11.4645 13.4645C12.4021 12.5268 13.6739 12 15 12C16.0881 12 17.1396 12.3547 18 13C18.1882 13.1411 18.3672 13.2962 18.5355 13.4645C19.4732 14.4021 20 15.6739 20 17V11V5C20 3.9 19.1 3 18 3H14.82ZM15 8V5H12H9V8H15Z" fill="black"/>
</svg>

<svg xmlns="http://www.w3.org/2000/svg" width="24" height="24" fill="none" viewBox="0 0 24 24">
  <path fill="#000" fill-rule="evenodd" d="M15 13.667a3.333 3.333 0 1 0 0 6.666 3.333 3.333 0 0 0 0-6.666Zm.347 2.985v-1.735h-1.041v2.777h2.777v-1.042h-1.736Z" clip-rule="evenodd"/>
  <path fill="#000" fill-rule="evenodd" d="M14.82 3C14.4 1.84 13.3 1 12 1c-1.3 0-2.4.84-2.82 2H6c-1.1 0-2 .9-2 2v15c0 1.1.9 2 2 2h9a5 5 0 1 1 5-5V5c0-1.1-.9-2-2-2h-3.18ZM15 8V5H9v3h6Z" clip-rule="evenodd"/>
</svg>
